config/awesome/icons/brightness.svg

<?xml version="1.0" encoding="UTF-8" standalone="no"?>
<svg
   xmlns:dc="http://purl.org/dc/elements/1.1/"
   xmlns:cc="http://creativecommons.org/ns#"
   xmlns:rdf="http://www.w3.org/1999/02/22-rdf-syntax-ns#"
   xmlns:svg="http://www.w3.org/2000/svg"
   xmlns="http://www.w3.org/2000/svg"
   xmlns:sodipodi="http://sodipodi.sourceforge.net/DTD/sodipodi-0.dtd"
   xmlns:inkscape="http://www.inkscape.org/namespaces/inkscape"
   version="1.1"
   width="240"
   height="240"
   viewBox="0 0 240 240"
   id="svg4"
   sodipodi:docname="brightness-7.svg"
   inkscape:version="0.92.4 5da689c313, 2019-01-14">
  <metadata
     id="metadata10">
    <rdf:RDF>
      <cc:Work
         rdf:about="">
        <dc:format>image/svg+xml</dc:format>
        <dc:type
           rdf:resource="http://purl.org/dc/dcmitype/StillImage" />
        <dc:title></dc:title>
      </cc:Work>
    </rdf:RDF>
  </metadata>
  <defs
     id="defs8" />
  <sodipodi:namedview
     pagecolor="#ffffff"
     bordercolor="#666666"
     borderopacity="1"
     objecttolerance="10"
     gridtolerance="10"
     guidetolerance="10"
     inkscape:pageopacity="0"
     inkscape:pageshadow="2"
     inkscape:window-width="1321"
     inkscape:window-height="740"
     id="namedview6"
     showgrid="false"
     inkscape:pagecheckerboard="true"
     inkscape:zoom="0.98333333"
     inkscape:cx="-267.45763"
     inkscape:cy="120"
     inkscape:window-x="45"
     inkscape:window-y="28"
     inkscape:window-maximized="0"
     inkscape:current-layer="svg4" />
  <path
     d="M 120,84.6331 A 35.366932,35.366932 0 0 0 84.6331,120 35.366932,35.366932 0 0 0 120,155.3669 35.366932,35.366932 0 0 0 155.3669,120 35.366932,35.366932 0 0 0 120,84.6331 m 0,88.4173 A 53.050398,53.050398 0 0 1 66.9496,120 53.050398,53.050398 0 0 1 120,66.9496 53.050398,53.050398 0 0 1 173.0504,120 53.050398,53.050398 0 0 1 120,173.0504 M 190.7339,90.7339 V 49.2661 H 149.2661 L 120,20 90.7339,49.2661 H 49.2661 V 90.7339 L 20,120 49.2661,149.2661 v 41.4678 H 90.7339 L 120,220 149.2661,190.7339 h 41.4678 V 149.2661 L 220,120 Z"
     id="path2"
     inkscape:connector-curvature="0"
     style="fill:#ffffff;stroke-width:8.84173298" />
</svg>

<?xml version="1.0" encoding="utf-8"?>
<!-- Generator: Adobe Illustrator 28.1.0, SVG Export Plug-In . SVG Version: 6.00 Build 0)  -->
<svg version="1.1"
	 id="svg4" xmlns:cc="http://creativecommons.org/ns#" xmlns:inkscape="http://www.inkscape.org/namespaces/inkscape" xmlns:sodipodi="http://sodipodi.sourceforge.net/DTD/sodipodi-0.dtd" xmlns:svg="http://www.w3.org/2000/svg" xmlns:rdf="http://www.w3.org/1999/02/22-rdf-syntax-ns#" xmlns:dc="http://purl.org/dc/elements/1.1/" sodipodi:docname="brightness-7.svg"
	 xmlns="http://www.w3.org/2000/svg" xmlns:xlink="http://www.w3.org/1999/xlink" x="0px" y="0px" viewBox="0 0 240 240"
	 style="enable-background:new 0 0 240 240;" xml:space="preserve">
<style type="text/css">
	.st0{fill:#B374E3;}
</style>
<sodipodi:namedview  bordercolor="#666666" borderopacity="1" gridtolerance="10" guidetolerance="10" id="namedview6" inkscape:current-layer="svg4" inkscape:cx="-267.45763" inkscape:cy="120" inkscape:pagecheckerboard="true" inkscape:pageopacity="0" inkscape:pageshadow="2" inkscape:window-height="740" inkscape:window-maximized="0" inkscape:window-width="1321" inkscape:window-x="45" inkscape:window-y="28" inkscape:zoom="0.98333333" objecttolerance="10" pagecolor="#ffffff" showgrid="false">
	</sodipodi:namedview>
<path id="path2" inkscape:connector-curvature="0" class="st0" d="M120,84.6c-19.5,0-35.4,15.8-35.4,35.4
	c0,19.5,15.8,35.4,35.4,35.4c19.5,0,35.4-15.8,35.4-35.4C155.4,100.5,139.5,84.6,120,84.6 M120,173.1c-29.3,0-53.1-23.8-53.1-53.1
	S90.7,66.9,120,66.9s53.1,23.8,53.1,53.1S149.3,173.1,120,173.1 M190.7,90.7V49.3h-41.5L120,20L90.7,49.3H49.3v41.5L20,120
	l29.3,29.3v41.5h41.5L120,220l29.3-29.3h41.5v-41.5L220,120L190.7,90.7z"/>
</svg>
